X:992
T:Polska efter Jularpa-Sven
T:(SvL Skåne nr. 29)
R:Polska
B:Svenska Låtar Skåne
Z:Patrik Månsson, 2009-01-12
O:Glimåkra, Skåne
S:efter [[!SvenAkesson|Sven Åkesson]]
M:3/4
L:1/16
K:Bb
|: F2 | Bdfd B2Bd c2ce | d2de A2Ac B2A2 | Bdfd B2Bd c2ce |
dcBA B4 F2 :: d2 | dcBA GABc A2B2 | G^FGB A=FAc B2A2 |
dcBA G2G2 ^F4 | G^FGB A=FAc B2A2 | GABc dcBc d=e^fg | BAG^F G4 G,2 :|
(:musicend:)

(:music:)
